!!!!SEGMENT: pl-wn--mus-iii-89-376--002_zelenski-wladyslaw--dwie-piesni-do-slow-adama-mickiewicza-slowiczku-moj.krn
!!!cenid: 18xx:3786
!!!COM: Żeleński, Władysław
!!!COM-rismID: pe41024455
!!!CDT:
!!!CNT:
!!!GTL: Dwie pieśni do słów Adama Mickiewicza
!!!OTL: Słowiczku mój
!!!PDT:
!!!AGN:
!!!SMS-siglum: PL-Wn
!!!SMS-shelfmark: Mus.III.89.376
!!!SMS-shelfwork: 002 G
!!!SMS-variant:
!!!SMS-altvar:
!!!NIFC-rismSourceID:
!!!NIFC-islandoraID:
!!!URL-pdf-islandora:
!!!URL-scan: https://polona.pl/item/dwie-piesnislow-do-slow-adama-mickiewicza,NjcyODg2MDU/0/#info:metadata @EN{Scan on Polona} @PL{Skany w portalu Polona}
!!!ONB-nifc:
!!!AIN: 2 piano 1 vox
!!!key: g-
**kern	**dynam	**kern	**dynam	**kern	**text	**dynam
*part3	*part3	*part2	*part2	*part1	*part1	*part1
*staff3	*	*staff2	*	*staff1	*staff1	*
*I"Fortepian.	*	*I"Fortepian.	*	*I"Śpiew.	*	*
*I'Pf.	*	*I'Pf.	*	*I'Śp.	*	*
*Ipiano	*	*Ipiano	*	*Ivox	*	*
*ICklav	*	*ICklav	*	*ICvox	*	*
*IGacmp	*	*IGacmp	*	*	*	*
*clefF4	*	*clefG2	*	*clefG2	*	*
*k[b-]	*	*k[b-]	*	*k[b-]	*	*
*g-:	*	*g-:	*	*g-:	*	*
*M3/4	*	*M3/4	*	*M3/4	*	*
=1	=1	=1	=1	=1	=1	=1
*^	*	*	*	*	*	*
!LO:TX:b:i:t=con Pedal	!	!	!	!	!LO:TX:a:B:t=Con moto.	!	!
([4C/	2FF\	.	28r	.	2.r	.	.
.	.	.	(28A/LL	p	.	.	.
.	.	.	28c/	.	.	.	.
.	.	.	28a/	.	.	.	.
.	.	.	28f/	.	.	.	.
.	.	.	28c/	.	.	.	.
.	.	.	28A/JJ)	.	.	.	.
4C/]) 4F	.	.	28r	.	.	.	.
.	.	.	(28c/LL	.	.	.	.
.	.	.	28f/	.	.	.	.
.	.	.	28cc/	.	.	.	.
.	.	.	28a/	.	.	.	.
.	.	.	28f/	.	.	.	.
.	.	.	28c/JJ)	.	.	.	.
4DD|/	4rEEyy	.	28r	.	.	.	.
!	!	!	!LO:TX:b:i:t=poco	!	!	!	!
.	.	.	(28d/LL	.	.	.	.
.	.	.	28f/	.	.	.	.
.	.	.	28dd/	.	.	.	.
.	.	.	28a/	.	.	.	.
.	.	.	28f/	.	.	.	.
.	.	.	28d/JJ)	.	.	.	.
=2	=2	=2	=2	=2	=2	=2	=2
([4C/	2FF\	.	28r	.	2.r	.	.
!	!	!	!	!	!LO:LB:g=original	!	!
.	.	.	(28A/LL	[	.	.	.
.	.	.	28c/	.	.	.	.
.	.	.	28a/	.	.	.	.
.	.	.	28f/	.	.	.	.
.	.	.	28c/	.	.	.	.
.	.	.	28A/JJ)	.	.	.	.
4C/]) 4F	.	.	28r	[	.	.	.
.	.	.	(28c/LL	.	.	.	.
.	.	.	28f/	.	.	.	.
.	.	.	28cc/	.	.	.	.
.	.	.	28a/	.	.	.	.
.	.	.	28f/	.	.	.	.
.	.	.	28c/JJ)	.	.	.	.
!	!	!LO:DY:a	!	!	!	!	!
4DD|/	4rEEyy	sfz	28r	.	.	.	.
!LO:LB:g=original	!LO:LB:g=original	!	!	!	!	!	!
.	.	.	(28d/LL	.	.	.	.
.	.	.	28f/	.	.	.	.
.	.	.	28dd/	.	.	.	.
.	.	.	28a/	.	.	.	.
.	.	.	28f/	.	.	.	.
.	.	.	28d/JJ)	.	.	.	.
!	!	!	!LO:LB:g=original	!	!	!	!
=3	=3	=3	=3	=3	=3	=3	=3
([4E/	2.AA\	.	28r	.	2.r	.	.
.	.	.	(28c/LL	<	.	.	.
.	.	.	28e/	.	.	.	.
.	.	.	28cc/	.	.	.	.
.	.	.	28a/	.	.	.	.
.	.	.	28e/	.	.	.	.
.	.	.	28c/JJ)	.	.	.	.
4E/]) 4A	.	.	28r	.	.	.	.
.	.	.	(28e/LL	.	.	.	.
.	.	.	28a/	.	.	.	.
.	.	.	28ee/	.	.	.	.
.	.	.	28cc/	.	.	.	.
.	.	.	28a/	.	.	.	.
.	.	.	28e/JJ)	.	.	.	.
4DD|^/	.	.	28r	.	.	.	.
.	.	.	(28d/LL	.	.	.	.
.	.	.	28f/	.	.	.	.
.	.	.	28dd/	.	.	.	.
.	.	.	28a/	.	.	.	.
.	.	.	28f/	.	.	.	.
.	.	.	28d/JJ)	[[	.	.	.
=4	=4	=4	=4	=4	=4	=4	=4
([4E/	2.AA\	.	28r	.	4r	.	.
!	!LO:PB:g=original	!	!	!	!	!	!
.	.	.	(28c/LL	[ >	.	.	.
.	.	.	28e/	.	.	.	.
.	.	.	28cc/	.	.	.	.
.	.	.	28a/	.	.	.	.
.	.	.	28e/	.	.	.	.
.	.	.	28c/JJ)	.	.	.	.
4E/]) 4A	.	.	28r	.	4r	.	.
.	.	.	(28c/LL	.	.	.	.
.	.	.	28e/	.	.	.	.
.	.	.	28cc/	.	.	.	.
.	.	.	28a/	.	.	.	.
.	.	.	28e/	.	.	.	.
.	.	.	28c/JJ)	.	.	.	.
4GG/	.	.	28r	.	8r	.	.
!LO:PB:g=original	!	!	!	!	!	!	!
.	.	.	(28c/LL	.	.	.	.
.	.	.	28e/	.	.	.	.
.	.	.	28cc/	.	.	.	.
!	!	!	!	!	!	!	!LO:DY:a
.	.	.	.	.	8cc\	Sło-	p
!	!	!	!	!	!LO:PB:g=original	!	!
.	.	.	28a/	.	.	.	.
.	.	.	28e/	]	.	.	.
.	.	.	28c/JJ)	]]	.	.	.
!	!	!	!LO:PB:g=original	!	!	!	!
=5	=5	=5	=5	=5	=5	=5	=5
(4C/	2.FF\	.	28r	p	[2cc\	-wicz-	.
.	.	.	(28c/LL	.	.	.	.
.	.	.	28f/	.	.	.	.
.	.	.	28cc/	.	.	.	.
.	.	.	28a/	.	.	.	.
.	.	.	28f/	.	.	.	.
.	.	.	28c/JJ)	.	.	.	.
4F/	.	.	28r	.	.	.	.
.	.	.	(28A/LL	.	.	.	.
.	.	.	28c/	.	.	.	.
.	.	.	28a/	.	.	.	.
.	.	.	28f/	.	.	.	.
.	.	.	28c/	.	.	.	.
.	.	.	28A/JJ)	.	.	.	.
4E/)	.	.	28r	.	8cc\]	.	.
.	.	.	(28A/LL	.	.	.	.
.	.	.	28c/	.	.	.	.
.	.	.	28a/	.	.	.	.
.	.	.	.	.	8a/	-ku	.
.	.	.	28f/	.	.	.	.
.	.	.	28c/	.	.	.	.
.	.	.	28A/JJ)	.	.	.	.
=6	=6	=6	=6	=6	=6	=6	=6
(8.D/L	2.FF\	.	28r	.	4f/	mój,	.
!	!LO:PB:g=original	!	!	!	!	!	!
.	.	.	(28d/LL	.	.	.	.
.	.	.	28f/	.	.	.	.
.	.	.	28dd/	.	.	.	.
.	.	.	28a/	.	.	.	.
.	.	.	28f/	.	.	.	.
16E/Jk	.	.	.	.	.	.	.
.	.	.	28d/JJ)	.	.	.	.
2F/)	.	.	28r	.	8r	.	.
!LO:PB:g=original	!	!	!	!	!	!	!
.	.	.	(28A/LL	.	.	.	.
.	.	.	28c/	.	.	.	.
.	.	.	28a/	.	.	.	.
!	!	!	!	!	!	!	!LO:DY:a
.	.	.	.	.	8a/	a	<
.	.	.	28f/	.	.	.	.
.	.	.	28c/	.	.	.	.
.	.	.	28A/JJ)	.	.	.	.
.	.	.	28r	.	8dd\	leć,	.
.	.	.	(28A/LL	.	.	.	.
.	.	.	28c/	.	.	.	.
.	.	.	28a/	.	.	.	.
.	.	.	.	.	8cc\	a	[
!	!	!	!	!	!LO:PB:g=original	!	!
.	.	.	28f/	.	.	.	.
.	.	.	28c/	.	.	.	.
.	.	.	28A/JJ)	.	.	.	.
!	!	!	!LO:PB:g=original	!	!	!	!
=7	=7	=7	=7	=7	=7	=7	=7
!	!	!	!	!	!	!	!LO:DY:a
(4C/	[2.FF\	.	28r	.	[2ff\	piej,	<
.	.	.	(28A/LL	.	.	.	.
.	.	.	28c/	.	.	.	.
.	.	.	28a/	.	.	.	.
.	.	.	28f/	.	.	.	.
.	.	.	28c/	.	.	.	.
.	.	.	28A/JJ)	.	.	.	.
4D/	.	.	28r	.	.	.	.
.	.	.	(28d/LL	.	.	.	.
.	.	.	28f/	.	.	.	.
.	.	.	28dd/	.	.	.	.
.	.	.	28a/	.	.	.	.
.	.	.	28f/	.	.	.	.
.	.	.	28d/JJ)	.	.	.	.
4E/	.	.	28r	.	8ff\]	.	[
.	.	.	(28c/LL	.	.	.	.
.	.	.	28f/	.	.	.	.
.	.	.	28cc/	.	.	.	.
.	.	.	.	.	8ee\	Na	.
.	.	.	28a/	.	.	.	.
.	.	.	28f/	.	.	.	.
.	.	.	28c/JJ)	.	.	.	.
=8	=8	=8	=8	=8	=8	=8	=8
8.F/L	8FF\]	.	28r	.	(8dd\	po-	.
.	.	.	(28f\LL	.	.	.	.
.	.	.	28a\	.	.	.	.
.	.	.	28ff\	.	.	.	.
.	8rEEyy	.	.	.	4cc\)	.	.
.	.	.	28cc\	.	.	.	.
.	.	.	28a\	.	.	.	.
16G/Jk	.	.	.	.	.	.	.
.	.	.	28f\JJ)	.	.	.	.
8A/)	4rEEyy	.	28r	.	.	.	.
.	.	.	(28e/LL	.	.	.	.
.	.	.	28a/	.	.	.	.
.	.	.	28ee/	.	.	.	.
8rA	.	.	.	.	8a/	-że-	.
.	.	.	28cc/	.	.	.	.
.	.	.	28a/	.	.	.	.
.	.	.	28e/JJ)	.	.	.	.
4rA	4rEEyy	.	28r	.	8f/	-gna-	.
!LO:LB:g=original	!LO:LB:g=original	!	!	!	!	!	!
.	.	.	(28d/LL	.	.	.	.
.	.	.	28f/	.	.	.	.
.	.	.	28dd/	.	.	.	.
.	.	.	.	.	8dd\	-nie	.
!	!	!	!	!	!LO:LB:g=original	!	!
.	.	.	28a/	.	.	.	.
.	.	.	28f/	.	.	.	.
.	.	.	28d/JJ)	.	.	.	.
!	!	!	!LO:LB:g=original	!	!	!	!
=9	=9	=9	=9	=9	=9	=9	=9
(4E/	2AA\	.	28r	.	2cc\	piej	.
.	.	.	(28c/LL	.	.	.	.
.	.	.	28e/	.	.	.	.
.	.	.	28cc/	.	.	.	.
.	.	.	28a/	]	.	.	.
.	.	.	28e/	>	.	.	.
.	.	.	28c/JJ)	.	.	.	.
4A/)	.	.	28r	.	.	.	.
.	.	.	(28a\LL	.	.	.	.
.	.	.	28cc\	.	.	.	.
.	.	.	28aa\	.	.	.	.
.	.	.	28ee\	.	.	.	.
.	.	.	28cc\	.	.	.	.
.	.	.	28a\JJ)	.	.	.	.
8.Bn/L	[4A\	.	28r	.	4r	.	.
.	.	.	(28f\LL	]	.	.	.
.	.	.	28a\	]	.	.	.
.	.	.	28ff\	.	.	.	.
.	.	.	28dd\	.	.	.	.
.	.	.	28a\	.	.	.	.
16d/Jk	.	.	.	.	.	.	.
.	.	.	28f\JJ)	.	.	.	.
=10	=10	=10	=10	=10	=10	=10	=10
[2c\	2A\_	.	28r	.	4r	.	.
.	.	.	(28e/LL	.	.	.	.
.	.	.	28a/	.	.	.	.
.	.	.	28ee/	.	.	.	.
.	.	.	28cc/	.	.	.	.
.	.	.	28a/	.	.	.	.
.	.	.	28e/JJ)	.	.	.	.
.	.	.	28r	.	4r	.	.
.	.	.	(28cc\LL	.	.	.	.
.	.	.	28ee\	.	.	.	.
.	.	.	28ccc\	.	.	.	.
.	.	.	28aa\	.	.	.	.
.	.	.	28ee\	.	.	.	.
.	.	.	28cc\JJ)	.	.	.	.
8c\]	8A\]	.	28r	.	8r	.	.
.	.	.	(28a\LL	.	.	.	.
.	.	.	28cc\	.	.	.	.
.	.	.	28aa\	.	.	.	.
!	!	!	!	!	!LO:TX:a:i:t=dolce	!	!
8r	8rEEyy	.	.	.	8cc\	Wy-	.
!LO:LB:g=original	!LO:LB:g=original	!	!	!	!LO:LB:g=original	!	!
.	.	.	28ee\	.	.	.	.
.	.	.	28cc\	.	.	.	.
.	.	.	28a\JJ)	.	.	.	.
!	!	!	!LO:LB:g=original	!	!	!	!
=11	=11	=11	=11	=11	=11	=11	=11
(8.f/L	2.G\	.	28r	.	8a/	-la-	.
.	.	.	(28b-\LL	.	.	.	.
.	.	.	28dd\	.	.	.	.
.	.	.	28bb-\	.	.	.	.
.	.	.	.	.	8b-\	-nym	.
.	.	.	28ff\	.	.	.	.
.	.	.	28dd\	.	.	.	.
16d/Jk	.	.	.	.	.	.	.
.	.	.	28b-\JJ)	.	.	.	.
2B-/)	.	.	28r	.	4.ee\	łzom,	.
.	.	.	(28g\LL	.	.	.	.
.	.	.	28b-\	.	.	.	.
.	.	.	28gg\	.	.	.	.
.	.	.	28dd\	.	.	.	.
.	.	.	28b-\	.	.	.	.
.	.	.	28g\JJ)	.	.	.	.
.	.	.	28r	.	.	.	.
.	.	.	(28g\LL	.	.	.	.
.	.	.	28b-\	.	.	.	.
.	.	.	28gg\	.	.	.	.
.	.	.	.	.	8dd\	speł-	.
.	.	.	28dd\	.	.	.	.
.	.	.	28b-\	.	.	.	.
.	.	.	28g\JJ)	.	.	.	.
=12	=12	=12	=12	=12	=12	=12	=12
(8.f/L	2.G\	.	28r	.	8a/	-nio-	.
!	!LO:LB:g=original	!	!	!	!	!	!
.	.	.	(28b-\LL	.	.	.	.
.	.	.	28dd\	.	.	.	.
.	.	.	28bb-\	.	.	.	.
.	.	.	.	.	8b-\	-nym	.
.	.	.	28ff\	.	.	.	.
.	.	.	28dd\	.	.	.	.
16d/Jk	.	.	.	.	.	.	.
.	.	.	28b-\JJ)	.	.	.	.
2B-/)	.	.	28r	.	4.ff\	snom,	.
!LO:LB:g=original	!	!	!	!	!	!	!
.	.	.	(28g\LL	.	.	.	.
.	.	.	28b-\	.	.	.	.
.	.	.	28gg\	.	.	.	.
.	.	.	28dd\	.	.	.	.
.	.	.	28b-\	.	.	.	.
.	.	.	28g\JJ)	.	.	.	.
.	.	.	28r	.	.	.	.
.	.	.	(28g\LL	.	.	.	.
.	.	.	28b-\	.	.	.	.
.	.	.	28gg\	.	.	.	.
.	.	.	.	.	8ee\	Skoń-	.
!	!	!	!	!	!LO:LB:g=original	!	!
.	.	.	28dd\	.	.	.	.
.	.	.	28b-\	.	.	.	.
.	.	.	28g\JJ)	.	.	.	.
!	!	!	!LO:LB:g=original	!	!	!	!
=13	=13	=13	=13	=13	=13	=13	=13
(8.B-/L	2.C\	.	28r	.	(8dd\	-czo-	.
.	.	.	(28g\LL	.	.	.	.
.	.	.	28b-\	.	.	.	.
.	.	.	28gg\	.	.	.	.
.	.	.	.	.	4cc\)	.	.
.	.	.	28ee\	.	.	.	.
.	.	.	28b-\	.	.	.	.
16A/Jk	.	.	.	.	.	.	.
.	.	.	28g\JJ)	.	.	.	.
4G/	.	.	28r	>	.	.	.
.	.	.	(28d/LL	.	.	.	.
.	.	.	28g/	.	.	.	.
.	.	.	28dd/	.	.	.	.
.	.	.	.	.	8g/	-nej	.
.	.	.	28b-/	.	.	.	.
.	.	.	28g/	.	.	.	.
.	.	.	28d/JJ)	.	.	.	.
4c/)	.	.	28r	.	8a/	piosn-	.
.	.	.	(28e/LL	.	.	.	.
.	.	.	28g/	.	.	.	.
.	.	.	28ee/	.	.	.	.
.	.	.	.	.	8b-\	-ce	.
.	.	.	28b-/	.	.	.	.
.	.	.	28g/	]	.	.	.
.	.	.	28e/JJ)	.	.	.	.
=14	=14	=14	=14	=14	=14	=14	=14
(8.c/L	4F\	.	28r	.	[2a/	twej.	.
.	.	.	(28f\LL	.	.	.	.
.	.	.	28a\	.	.	.	.
.	.	.	28ff\	.	.	.	.
.	.	.	28cc\	.	.	.	.
.	.	.	28a\	.	.	.	.
16A/Jk	.	.	.	.	.	.	.
.	.	.	28f\JJ)	.	.	.	.
!	!	!	!LO:TX:b:i:t=poco	!	!	!	!
4F/)	4rEEyy	.	28r	<	.	.	.
.	.	.	(28c/LL	.	.	.	.
.	.	.	28f/	.	.	.	.
.	.	.	28cc/	.	.	.	.
.	.	.	28a/	.	.	.	.
.	.	.	28f/	.	.	.	.
.	.	.	28c/JJ)	.	.	.	.
[(4D/	4rEEyy	.	28r	[	8a/]	.	.
!LO:PB:g=original	!LO:PB:g=original	!	!	!	!	!	!
.	.	.	(28d/LL	.	.	.	.
.	.	.	28f/	.	.	.	.
.	.	.	28dd/	.	.	.	.
.	.	.	.	.	8r	.	.
!	!	!	!	!	!LO:PB:g=original	!	!
.	.	.	28a/	.	.	.	.
.	.	.	28f/	.	.	.	.
.	.	.	28d/JJ)	.	.	.	.
!	!	!	!LO:PB:g=original	!	!	!	!
=15	=15	=15	=15	=15	=15	=15	=15
4rc]	8.E\L	.	28r	.	2.r	.	.
.	.	.	(28c#X/LL	.	.	.	.
.	.	.	28e/	.	.	.	.
.	.	.	28cc#X/	.	.	.	.
.	.	.	28a/	.	.	.	.
.	.	.	28e/	.	.	.	.
.	16C#X\Jk	.	.	.	.	.	.
.	.	.	28c#/JJ)	.	.	.	.
4AA/	[2AA\	.	28r	.	.	.	.
.	.	.	(28e/LL	.	.	.	.
.	.	.	28a/	.	.	.	.
.	.	.	28ee/	.	.	.	.
.	.	.	28cc#/	.	.	.	.
.	.	.	28a/	.	.	.	.
.	.	.	28e/JJ)	.	.	.	.
4F/)	.	.	28r	.	.	.	.
.	.	.	(28d/LL	.	.	.	.
.	.	.	28f/	.	.	.	.
.	.	.	28dd/	.	.	.	.
.	.	.	28bn/	.	.	.	.
.	.	.	28f/	.	.	.	.
.	.	.	28d/JJ)	.	.	.	.
=16	=16	=16	=16	=16	=16	=16	=16
(8.E/L	4AA\]	.	28r	.	4r	.	.
.	.	.	(28c#X/LL	.	.	.	.
.	.	.	28e/	.	.	.	.
.	.	.	28cc#X/	.	.	.	.
.	.	.	28a/	.	.	.	.
.	.	.	28e/	.	.	.	.
16C#X/Jk	.	.	.	.	.	.	.
.	.	.	28c#/JJ)	.	.	.	.
4AA/	[2AA\	.	28r	.	4r	.	.
!	!LO:LB:g=original	!	!	!	!	!	!
.	.	.	(28e/LL	.	.	.	.
.	.	.	28a/	.	.	.	.
.	.	.	28ee/	.	.	.	.
.	.	.	28cc#/	.	.	.	.
.	.	.	28a/	.	.	.	.
.	.	.	28e/JJ)	.	.	.	.
4F/)	.	.	28r	.	8r	.	.
!LO:LB:g=original	!	!	!	!	!	!	!
.	.	.	(28d/LL	.	.	.	.
.	.	.	28f/	.	.	.	.
.	.	.	28dd/	.	.	.	.
.	.	.	.	.	8a/	Sło-	.
!	!	!	!	!	!LO:LB:g=original	!	!
.	.	.	28bn/	.	.	.	.
.	.	.	28f/	.	.	.	.
.	.	.	28d/JJ)	.	.	.	.
!	!	!	!LO:LB:g=original	!	!	!	!
=17	=17	=17	=17	=17	=17	=17	=17
!	!	!	!	!	!LO:TX:a:i:t=con vigore	!	!
(8.E/L	4AA\]	.	28r	.	[2ee\	-wicz-	.
.	.	.	(28c#X/LL	.	.	.	.
.	.	.	28e/	.	.	.	.
.	.	.	28cc#X/	.	.	.	.
.	.	.	28a/	.	.	.	.
.	.	.	28e/	.	.	.	.
16C#X/Jk	.	.	.	.	.	.	.
.	.	.	28c#/JJ)	.	.	.	.
4AA/	[2AA\	.	28r	.	.	.	.
.	.	.	(28e/LL	.	.	.	.
.	.	.	28a/	.	.	.	.
.	.	.	28ee/	.	.	.	.
.	.	.	28cc#/	.	.	.	.
.	.	.	28a/	.	.	.	.
.	.	.	28e/JJ)	.	.	.	.
4G/)	.	.	28r	.	8ee\]	.	.
.	.	.	(28c#/LL	.	.	.	.
.	.	.	28e/	.	.	.	.
.	.	.	28cc#/	.	.	.	.
.	.	.	.	.	8cc#X\	-ku	.
.	.	.	28a/	.	.	.	.
.	.	.	28e/	.	.	.	.
.	.	.	28c#/JJ)	.	.	.	.
=18	=18	=18	=18	=18	=18	=18	=18
(8.F/L	4AA\]	.	28r	.	8a/	mój!	.
.	.	.	(28d/LL	.	.	.	.
.	.	.	28f/	.	.	.	.
.	.	.	28dd/	.	.	.	.
.	.	.	.	.	8a/	twe	.
.	.	.	28a/	.	.	.	.
.	.	.	28f/	.	.	.	.
16D/Jk	.	.	.	.	.	.	.
.	.	.	28d/JJ)	.	.	.	.
!	!	!	!	!	!	!	!LO:DY:a
4AA/	[2AA\	.	28r	<	8bn\	piór-	<
!	!LO:LB:g=original	!	!	!	!	!	!
.	.	.	(28f\LL	.	.	.	.
.	.	.	28a\	.	.	.	.
.	.	.	28ff\	.	.	.	.
.	.	.	.	.	8dd\	-ka	.
.	.	.	28dd\	.	.	.	.
.	.	.	28a\	.	.	.	.
.	.	.	28f\JJ)	.	.	.	.
4A/)	.	.	28r	.	8cc#X\	zzuj,	.
!LO:LB:g=original	!	!	!	!	!	!	!
.	.	.	(28e/LL	[	.	.	.
.	.	.	28a/	.	.	.	.
.	.	.	28ee/	.	.	.	.
.	.	.	.	.	8ee\	So-	[
!	!	!	!	!	!LO:LB:g=original	!	!
.	.	.	28cc#X/	.	.	.	.
.	.	.	28a/	.	.	.	.
.	.	.	28e/JJ)	.	.	.	.
!	!	!	!LO:LB:g=original	!	!	!	!
=19	=19	=19	=19	=19	=19	=19	=19
(8.E/L	4AA\]	.	28r	.	4.aa\	-ko-	.
.	.	.	(28a\LL	.	.	.	.
.	.	.	28cc#X\	.	.	.	.
.	.	.	28aa\	.	.	.	.
.	.	.	28ee\	.	.	.	.
.	.	.	28cc#\	.	.	.	.
16C#X/Jk	.	.	.	.	.	.	.
.	.	.	28a\JJ)	.	.	.	.
4AA/	[2AA\	.	28r	.	.	.	.
.	.	.	(28e/LL	.	.	.	.
.	.	.	28a/	.	.	.	.
.	.	.	28ee/	.	.	.	.
.	.	.	.	.	8ee\	-le	.
.	.	.	28cc#/	.	.	.	.
.	.	.	28a/	.	.	.	.
.	.	.	28e/JJ)	.	.	.	.
4A/)	.	.	28r	.	8cc#X\	skrzy-	.
.	.	.	(28c#X/LL	.	.	.	.
.	.	.	28e/	.	.	.	.
.	.	.	28cc#/	.	.	.	.
.	.	.	.	.	8dd\	-dła	.
.	.	.	28a/	.	.	.	.
.	.	.	28e/	.	.	.	.
.	.	.	28c#/JJ)	.	.	.	.
=20	=20	=20	=20	=20	=20	=20	=20
(8.E/L	4AA\]	.	28r	.	[2.ee\	weź	.
!	!	!	!	!	!LO:LB:g=original	!	!
.	.	.	(28e/LL	.	.	.	.
.	.	.	28a/	.	.	.	.
.	.	.	28ee/	.	.	.	.
.	.	.	28cc#X/	.	.	.	.
.	.	.	28a/	.	.	.	.
16C#X/Jk	.	.	.	.	.	.	.
.	.	.	28e/JJ)	.	.	.	.
4AA/)	4AA\	.	28r	.	.	.	.
.	.	.	(28a\LL	.	.	.	.
.	.	.	28cc#\	.	.	.	.
.	.	.	28aa\	.	.	.	.
.	.	.	28ee\	.	.	.	.
.	.	.	28cc#\	.	.	.	.
.	.	.	28a\JJ)	.	.	.	.
(8.A/L	[4A\	.	28r	.	.	.	.
!	!LO:LB:g=original	!	!	!	!	!	!
.	.	.	28cc#\LL	.	.	.	.
.	.	.	28ee\	.	.	.	.
.	.	.	28ccc#X\	.	.	.	.
.	.	.	28aa\	.	.	.	.
.	.	.	28ee\	.	.	.	.
16Bn/Jk	.	.	.	.	.	.	.
.	.	.	28cc#\JJ	.	.	.	.
!LO:LB:g=original	!	!	!LO:LB:g=original	!	!	!	!
=21	=21	=21	=21	=21	=21	=21	=21
8.c#X/L	2A\]	.	28r	.	8ee\]	.	.
.	.	.	(28ee\LL	.	.	.	.
.	.	.	28aa\	.	.	.	.
.	.	.	28eee\	.	.	.	.
.	.	.	.	.	8r	.	.
.	.	.	28ccc#X\	.	.	.	.
.	.	.	28aa\	.	.	.	.
16d/Jk	.	.	.	.	.	.	.
.	.	.	28ee\JJ)	.	.	.	.
4e/)	.	.	28r	.	4r	.	.
.	.	.	(28cc#X\LL	.	.	.	.
.	.	.	28ee\	.	.	.	.
.	.	.	28ccc#\	.	.	.	.
.	.	.	28aa\	.	.	.	.
.	.	.	28ee\	.	.	.	.
.	.	.	28cc#\JJ)	.	.	.	.
4A/	4A\	.	28r	.	8r	.	.
.	.	.	(28a\LL	.	.	.	.
.	.	.	28cc#\	.	.	.	.
.	.	.	28aa\	.	.	.	.
!	!	!	!	!	!LO:TX:a:i:t=animando sempre e	!	!
.	.	.	.	.	8ee\	I	.
.	.	.	28ee\	.	.	.	.
.	.	.	28cc#\	.	.	.	.
.	.	.	28a\JJ)	.	.	.	.
=22	=22	=22	=22	=22	=22	=22	=22
!LO:TX:b:i:t=animando sempre e	!	!	!	!	!	!	!LO:DY:a
(8.f/L	2.G\	.	28r	.	4.gg\	w o-	<
!	!LO:PB:g=original	!	!	!	!	!	!
.	.	.	(28b-\LL	.	.	.	.
.	.	.	28dd\	.	.	.	.
.	.	.	28bb-\	.	.	.	.
.	.	.	28ff\	.	.	.	.
.	.	.	28dd\	.	.	.	.
16d/Jk	.	<	.	.	.	.	.
.	.	.	28b-\JJ)	.	.	.	.
2B-/)	.	.	28r	.	.	.	.
!LO:PB:g=original	!	!	!	!	!	!	!
.	.	.	(28f\LL	.	.	.	.
.	.	.	28b-\	.	.	.	.
.	.	.	28ff\	.	.	.	.
.	.	.	.	.	8ff\	-strzu	.
.	.	.	28dd\	.	.	.	.
.	.	.	28b-\	.	.	.	.
.	.	.	28f\JJ)	.	.	.	.
.	.	.	28r	.	8dd\	szpon	[
.	.	.	(28d/LL	.	.	.	.
.	.	.	28f/	.	.	.	.
.	.	.	28dd/	.	.	.	.
.	.	.	.	.	8b-\	zo-	.
!	!	!	!	!	!LO:PB:g=original	!	!
.	.	.	28b-/	.	.	.	.
.	.	.	28f/	.	.	.	.
.	.	.	28d/JJ)	.	.	.	.
!	!	!	!LO:PB:g=original	!	!	!	!
=23	=23	=23	=23	=23	=23	=23	=23
(8.f/L	2.G\	[	28r	.	8a/	-ło-	.
.	.	.	(28b-\LL	.	.	.	.
.	.	.	28dd\	.	.	.	.
.	.	.	28bb-\	.	.	.	.
.	.	.	.	.	8g/	-to	.
.	.	.	28ff\	.	.	.	.
.	.	.	28dd\	.	.	.	.
16d/Jk	.	.	.	.	.	.	.
.	.	.	28b-\JJ)	.	.	.	.
2B-/)	.	.	28r	.	4dd\	strun	.
.	.	.	(28f\LL	.	.	.	.
.	.	.	28b-\	.	.	.	.
.	.	.	28ff\	.	.	.	.
.	.	.	28dd\	.	.	.	.
.	.	.	28b-\	.	.	.	.
.	.	.	28f\JJ)	.	.	.	.
.	.	.	28r	.	8r	.	.
.	.	.	(28d/LL	.	.	.	.
.	.	.	28f/	.	.	.	.
.	.	.	28dd/	.	.	.	.
.	.	.	.	.	8ee\	I	.
.	.	.	28b-/	.	.	.	.
.	.	.	28f/	.	.	.	.
.	.	.	28d/JJ)	.	.	.	.
=24	=24	=24	=24	=24	=24	=24	=24
(8.f/L	2.G\	.	28r	.	4.gg\	w o-	.
!	!LO:LB:g=original	!	!	!	!	!	!
.	.	.	28dd\LL	.	.	.	.
.	.	.	28ff\	.	.	.	.
.	.	.	28ddd\	.	.	.	.
.	.	.	28bbn\	.	.	.	.
.	.	.	28ff\	.	.	.	.
16d/Jk	.	.	.	.	.	.	.
.	.	.	28dd\JJ	.	.	.	.
2Bn/)	.	.	28r	.	.	.	.
!LO:LB:g=original	!	!	!	!	!	!	!
.	.	.	(28bn\LL	.	.	.	.
.	.	.	28dd\	.	.	.	.
.	.	.	28bb\	.	.	.	.
.	.	.	.	.	8ff\	-strzu	.
.	.	.	28ff\	.	.	.	.
.	.	.	28dd\	.	.	.	.
.	.	.	28b\JJ)	.	.	.	.
.	.	.	28r	.	8dd\	szpon	.
.	.	.	(28f\LL	.	.	.	.
.	.	.	28b\	.	.	.	.
.	.	.	28ff\	.	.	.	.
.	.	.	.	.	8cc\	zo-	.
!	!	!	!	!	!LO:LB:g=original	!	!
.	.	.	28dd\	.	.	.	.
.	.	.	28b\	.	.	.	.
.	.	.	28f\JJ)	.	.	.	.
!	!	!	!LO:LB:g=original	!	!	!	!
*v	*v	*	*	*	*	*	*
=25	=25	=25	=25	=25	=25	=25
*	*	*8va	*	*	*	*
*^	*	*	*	*	*	*
(8.f/L	2.G\	.	28r	.	8bn\	-ło-	.
.	.	.	(28ff\LL	.	.	.	.
.	.	.	28bbn\	.	.	.	.
.	.	.	28fff\	.	.	.	.
!	!	!	!	!	!	!	!LO:DY:a
.	.	.	.	.	8a/	-to	<
.	.	.	28ddd\	.	.	.	.
.	.	.	28bb\	.	.	.	.
16d/Jk	.	.	.	.	.	.	.
.	.	.	28ff\JJ)	.	.	.	.
*	*	*	*X8va	*	*	*	*
4Bn/	.	.	28r	.	4.ff\	strun	.
.	.	.	(28dd\LL	.	.	.	.
.	.	.	28ff\	.	.	.	.
.	.	.	28ddd\	.	.	.	.
.	.	.	28bbn\	.	.	.	.
.	.	.	28ff\	.	.	.	.
.	.	.	28dd\JJ)	.	.	.	.
4f/	.	.	28r	.	.	.	.
.	.	.	(28bn\LL	.	.	.	.
.	.	.	28dd\	.	.	.	.
.	.	.	28bb\	.	.	.	.
.	.	.	.	.	8ee\	Da-	[
.	.	.	28ff\	.	.	.	.
.	.	.	28dd\	.	.	.	.
.	.	.	28b\JJ)	.	.	.	.
*v	*v	*	*	*	*	*	*
=26	=26	=26	=26	=26	=26	=26
!	!	!	!	!	!	!LO:DY:a
4c\) 4e	.	28r	f	4.cc\	-widz-	f
.	.	(28cc\LL	.	.	.	.
.	.	28ee\	.	.	.	.
.	.	28ccc\	.	.	.	.
.	.	28gg\	.	.	.	.
.	.	28ee\	.	.	.	.
.	.	28cc\JJ)	.	.	.	.
!	!LO:DY:a	!	!	!	!	!
4CC|/	sfz	28r	.	.	.	.
.	.	(28c/LL	.	.	.	.
.	.	28e/	.	.	.	.
.	.	28cc/	.	.	.	.
.	.	.	.	8cc\	-ki	.
.	.	28g/	.	.	.	.
.	.	28e/	.	.	.	.
.	.	28c/JJ)	.	.	.	.
((4F\ 4A	.	28r	.	8dd\	hymn	.
!LO:LB:g=original	!	!	!	!	!	!
.	.	(28d/LL	.	.	.	.
.	.	28f/	.	.	.	.
.	.	28dd/	.	.	.	.
.	.	.	.	8ee\	tu	.
!	!	!	!	!LO:LB:g=original	!	!
.	.	28a/	.	.	.	.
.	.	28f/	.	.	.	.
.	.	28d/JJ)	.	.	.	.
!	!	!LO:LB:g=original	!	!	!	!
=27	=27	=27	=27	=27	=27	=27
4C\)) 4G	.	28r	.	4.cc\	nieś	.
.	.	(28e/LL	.	.	.	.
.	.	28g/	.	.	.	.
.	.	28ee/	.	.	.	.
.	.	28cc/	.	.	.	.
.	.	28g/	.	.	.	.
.	.	28e/JJ)	.	.	.	.
!	!LO:DY:a	!	!	!	!	!
4CC|/	sfz	28r	.	.	.	.
.	.	(28c/LL	.	.	.	.
.	.	28e/	.	.	.	.
.	.	28cc/	.	.	.	.
.	.	.	.	8cc\	Da-	.
.	.	28g/	.	.	.	.
.	.	28e/	.	.	.	.
.	.	28c/JJ)	.	.	.	.
((4F\ 4A	.	28r	.	8dd\	-widz-	.
.	.	(28d/LL	.	.	.	.
.	.	28f/	.	.	.	.
.	.	28dd/	.	.	.	.
.	.	.	.	8ff\	-ki	.
.	.	28a/	.	.	.	.
.	.	28f/	.	.	.	.
.	.	28d/JJ)	.	.	.	.
=28	=28	=28	=28	=28	=28	=28
4C\)) 4G	.	28r	.	2ee\	hymn	.
.	.	(28e/LL	.	.	.	.
.	.	28g/	.	.	.	.
.	.	28ee/	.	.	.	.
.	.	28cc/	.	.	.	.
.	.	28g/	.	.	.	.
.	.	28e/JJ)	.	.	.	.
!	!LO:DY:a	!	!	!	!	!
4CC|/	sfz	28r	.	.	.	.
.	.	(28c/LL	.	.	.	.
.	.	28e/	.	.	.	.
.	.	28cc/	.	.	.	.
.	.	28g/	.	.	.	.
.	.	28e/	.	.	.	.
.	.	28c/JJ)	.	.	.	.
((4F\ 4A	.	28r	.	4dd\	tu	.
!LO:LB:g=original	!	!	!	!LO:LB:g=original	!	!
.	.	(28d/LL	.	.	.	.
.	.	28f/	.	.	.	.
.	.	28dd/	.	.	.	.
.	.	28a/	.	.	.	.
.	.	28f/	.	.	.	.
.	.	28d/JJ)	.	.	.	.
!	!	!LO:LB:g=original	!	!	!	!
=29	=29	=29	=29	=29	=29	=29
4C\)) 4G	.	28r	.	[2.gg\	nieś!	.
.	.	(28e/LL	.	.	.	.
.	.	28g/	.	.	.	.
.	.	28ee/	.	.	.	.
.	.	28cc/	.	.	.	.
.	.	28g/	.	.	.	.
.	.	28e/JJ)	.	.	.	.
!	!LO:DY:a	!	!	!	!	!
4CC|/	sfz	28r	.	.	.	.
.	.	(28e/LL	.	.	.	.
.	.	28g/	.	.	.	.
.	.	28ee/	.	.	.	.
.	.	28cc/	.	.	.	.
.	.	28g/	.	.	.	.
.	.	28e/JJ)	.	.	.	.
((4F\ 4B-	.	28r	.	.	.	.
.	.	(28d/LL	.	.	.	.
.	.	28g/	.	.	.	.
.	.	28dd/	.	.	.	.
.	.	28b-/	.	.	.	.
.	.	28g/	.	.	.	.
.	.	28d/JJ)	.	.	.	.
=30	=30	=30	=30	=30	=30	=30
4E\)) 4B-	.	28r	.	4gg\]	.	.
.	.	(28g\LL	.	.	.	.
.	.	28b-\	.	.	.	.
.	.	28gg\	.	.	.	.
.	.	28dd\	.	.	.	.
.	.	28b-\	.	.	.	.
.	.	28g\JJ)	.	.	.	.
!	!LO:DY:a	!	!	!	!	!
4CC|/	sfz	28r	.	4r	.	.
.	.	(28f\LL	.	.	.	.
.	.	28b-\	.	.	.	.
.	.	28ff\	.	.	.	.
.	.	28dd\	.	.	.	.
.	.	28b-\	.	.	.	.
.	.	28f\JJ)	.	.	.	.
((4F\ 4B-	.	28r	.	4r	.	.
!LO:PB:g=original	!	!	!	!LO:PB:g=original	!	!
.	.	(28d/LL	.	.	.	.
.	.	28g/	.	.	.	.
.	.	28dd/	.	.	.	.
.	.	28b-/	.	.	.	.
.	.	28g/	.	.	.	.
.	.	28d/JJ)	.	.	.	.
!	!	!LO:PB:g=original	!	!	!	!
=31	=31	=31	=31	=31	=31	=31
4E\)) 4B-	.	28r	>	2.r	.	.
.	.	(28c/LL	.	.	.	.
.	.	28g/	.	.	.	.
!	!	!LO:TX:b:i:t=sempre	!	!	!	!
.	.	28cc/	]	.	.	.
.	.	28b-/	.	.	.	.
.	.	28g/	.	.	.	.
.	.	28c/JJ)	.	.	.	.
!	!LO:DY:a	!	!	!	!	!
4CC|/	sfz	28r	.	.	.	.
.	.	(28e/LL	.	.	.	.
.	.	28g/	.	.	.	.
.	.	28ee/	.	.	.	.
.	.	28b-/	.	.	.	.
.	.	28g/	.	.	.	.
.	.	28e/JJ)	.	.	.	.
((4F\ 4B-	.	28r	.	.	.	.
.	.	(28d/LL	.	.	.	.
.	.	28g/	.	.	.	.
.	.	28dd/	.	.	.	.
.	.	28b-/	.	.	.	.
.	.	28g/	.	.	.	.
.	.	28d/JJ)	.	.	.	.
=32	=32	=32	=32	=32	=32	=32
4E\)) 4B-	.	28r	.	4r	.	.
.	.	(28c/LL	] >	.	.	.
.	.	28g/	.	.	.	.
.	.	28cc/	.	.	.	.
.	.	28b-/	.	.	.	.
.	.	28g/	.	.	.	.
.	.	28c/JJ)	.	.	.	.
(4CC|/	.	28r	.	4r	.	.
.	.	(28B-/LL	.	.	.	.
.	.	28d/	.	.	.	.
.	.	28b-/	.	.	.	.
.	.	28g/	.	.	.	.
.	.	28d/	.	.	.	.
.	.	28B-/JJ)	.	.	.	.
4C/)	.	28r	.	8r	.	.
!LO:LB:g=original	!	!	!	!	!	!
.	.	(28G/LL	.	.	.	.
.	.	28B-/	.	.	.	.
.	.	28g/	.	.	.	.
!	!	!	!	!	!	!LO:DY:a
.	.	.	.	8cc\	Bo	p
!	!	!	!	!LO:LB:g=original	!	!
.	.	28e/	.	.	.	.
.	.	28B-/	]	.	.	.
.	.	28G/JJ)	]]	.	.	.
!	!	!LO:LB:g=original	!	!	!	!
=33	=33	=33	=33	=33	=33	=33
*^	*	*	*	*	*	*
(4C/	[2.FF\	.	28r	pp	[4cc\	wy-	.
.	.	.	(28A/LL	.	.	.	.
.	.	.	28c/	.	.	.	.
.	.	.	28a/	.	.	.	.
.	.	.	28f/	.	.	.	.
.	.	.	28c/	.	.	.	.
.	.	.	28A/JJ)	.	.	.	.
4F/	.	.	28r	.	8cc\]	.	.
.	.	.	(28c/LL	.	.	.	.
.	.	.	28f/	.	.	.	.
.	.	.	28cc/	.	.	.	.
.	.	.	.	.	8a/	-szedł	.
.	.	.	28a/	.	.	.	.
.	.	.	28f/	.	.	.	.
.	.	.	28c/JJ)	.	.	.	.
4E/)	.	.	28r	.	8f/	głos	.
.	.	.	(28A/LL	.	.	.	.
.	.	.	28c/	.	.	.	.
.	.	.	28a/	.	.	.	.
.	.	.	.	.	8a/	i	.
.	.	.	28f/	.	.	.	.
.	.	.	28c/	.	.	.	.
.	.	.	28A/JJ)	.	.	.	.
=34	=34	=34	=34	=34	=34	=34	=34
(8.D/L	4FF\_	.	28r	.	[4dd\	padł	.
.	.	.	(28d/LL	.	.	.	.
.	.	.	28f/	.	.	.	.
.	.	.	28dd/	.	.	.	.
.	.	.	28a/	.	.	.	.
.	.	.	28f/	.	.	.	.
16E/Jk	.	.	.	.	.	.	.
.	.	.	28d/JJ)	.	.	.	.
8F/)	8FF\]	.	28r	.	8dd\]	.	.
.	.	.	(28A/LL	.	.	.	.
.	.	.	28c/	.	.	.	.
.	.	.	28a/	.	.	.	.
!	!	!	!	!	!	!	!LO:DY:a
8r	8rEEyy	.	.	.	8a/	już	<
.	.	.	28f/	.	.	.	.
.	.	.	28c/	]	.	.	.
.	.	.	28A/JJ)	.	.	.	.
4r	4rEEyy	.	28r	.	8cc\	los,	.
!LO:LB:g=original	!LO:LB:g=original	!	!	!	!	!	!
.	.	.	(28A/LL	.	.	.	.
.	.	.	28c/	.	.	.	.
.	.	.	28a/	.	.	.	.
.	.	.	.	.	8dd\	I	[
!	!	!	!	!	!LO:LB:g=original	!	!
.	.	.	28f/	.	.	.	.
.	.	.	28c/	]	.	.	.
.	.	.	28A/JJ)	.	.	.	.
!	!	!	!LO:LB:g=original	!	!	!	!
=35	=35	=35	=35	=35	=35	=35	=35
(4C/	[2.FF\	.	28r	.	[2ff\	taj-	.
.	.	.	(28A/LL	.	.	.	.
.	.	.	28c/	.	.	.	.
.	.	.	28a/	.	.	.	.
.	.	.	28f/	.	.	.	.
.	.	.	28c/	.	.	.	.
.	.	.	28A/JJ)	.	.	.	.
4D/	.	.	28r	.	.	.	.
.	.	.	(28d/LL	.	.	.	.
.	.	.	28f/	.	.	.	.
.	.	.	28dd/	.	.	.	.
.	.	.	28a/	.	.	.	.
.	.	.	28f/	.	.	.	.
.	.	.	28d/JJ)	.	.	.	.
4E/)	.	.	28r	.	8ff\]	.	.
.	.	.	(28c/LL	.	.	.	.
.	.	.	28f/	.	.	.	.
.	.	.	28cc/	.	.	.	.
.	.	.	.	.	8ee\	-nych	.
.	.	.	28a/	.	.	.	.
.	.	.	28f/	.	.	.	.
.	.	.	28c/JJ)	.	.	.	.
=36	=36	=36	=36	=36	=36	=36	=36
(8.F/L	8FF\]	.	28r	.	8dd\	brze-	.
.	.	.	(28f\LL	.	.	.	.
.	.	.	28a\	.	.	.	.
.	.	.	28ff\	.	.	.	.
.	8rEEyy	.	.	.	8cc\	-mię	.
.	.	.	28cc\	.	.	.	.
.	.	.	28a\	.	.	.	.
16G/Jk	.	.	.	.	.	.	.
.	.	.	28f\JJ)	.	.	.	.
8A/)	4rEEyy	.	28r	.	8a/	lat	.
.	.	.	(28e/LL	.	.	.	.
.	.	.	28a/	.	.	.	.
.	.	.	28ee/	.	.	.	.
8r	.	.	.	.	8g/	wy-	.
.	.	.	28cc/	.	.	.	.
.	.	.	28a/	.	.	.	.
.	.	.	28e/JJ)	.	.	.	.
4r	4rEEyy	.	28r	.	8f/	-da-	.
!LO:LB:g=original	!LO:LB:g=original	!	!	!	!	!	!
.	.	.	(28d/LL	.	.	.	.
.	.	.	28f/	.	.	.	.
.	.	.	28dd/	.	.	.	.
.	.	.	.	.	8dd\	-ło	.
!	!	!	!	!	!LO:LB:g=original	!	!
.	.	.	28a/	.	.	.	.
.	.	.	28f/	.	.	.	.
.	.	.	28d/JJ)	.	.	.	.
!	!	!	!LO:LB:g=original	!	!	!	!
=37	=37	=37	=37	=37	=37	=37	=37
(4E/	2AA\	.	28r	.	2cc\	płód	.
.	.	.	(28c/LL	.	.	.	.
.	.	.	28e/	.	.	.	.
.	.	.	28cc/	.	.	.	.
.	.	.	28a/	]	.	.	.
.	.	.	28e/	.	.	.	.
.	.	.	28c/JJ)	.	.	.	.
(4A/	.	.	28r	.	.	.	.
.	.	.	(28a\LL	.	.	.	.
.	.	.	28cc\	.	.	.	.
.	.	.	28aa\	.	.	.	.
.	.	.	28ee\	.	.	.	.
.	.	.	28cc\	.	.	.	.
.	.	.	28a\JJ)	.	.	.	.
8.Bn/L)	4A\	.	28r	.	4r	.	.
.	.	.	(28f\LL	]	.	.	.
.	.	.	28a\	.	.	.	.
.	.	.	28ff\	.	.	.	.
.	.	.	28dd\	.	.	.	.
.	.	.	28a\	.	.	.	.
16d/Jk	.	.	.	.	.	.	.
.	.	.	28f\JJ)	.	.	.	.
*v	*v	*	*	*	*	*	*
=38	=38	=38	=38	=38	=38	=38
[2A\) [2c	.	28r	.	4r	.	.
.	.	(28e/LL	.	.	.	.
.	.	28a/	.	.	.	.
.	.	28ee/	.	.	.	.
.	.	28cc/	.	.	.	.
.	.	28a/	.	.	.	.
.	.	28e/JJ)	.	.	.	.
.	.	28r	.	4r	.	.
.	.	(28cc\LL	.	.	.	.
.	.	28ee\	.	.	.	.
.	.	28ccc\	.	.	.	.
.	.	28aa\	.	.	.	.
.	.	28ee\	.	.	.	.
.	.	28cc\JJ)	.	.	.	.
8A\] 8c]	.	28r	.	8r	.	.
.	.	(28a\LL	.	.	.	.
.	.	28cc\	.	.	.	.
.	.	28aa\	.	.	.	.
!	!	!	!	!LO:TX:a:i:t=dolce	!	!
8r	.	.	.	8cc\	I	.
!LO:PB:g=original	!	!	!	!LO:PB:g=original	!	!
.	.	28ee\	.	.	.	.
.	.	28cc\	.	.	.	.
.	.	28a\JJ)	.	.	.	.
!	!	!LO:PB:g=original	!	!	!	!
=39	=39	=39	=39	=39	=39	=39
*^	*	*	*	*	*	*
(8.f/L	2.G\	.	28r	.	8a/	stał	.
.	.	.	(28b-\LL	.	.	.	.
.	.	.	28dd\	.	.	.	.
.	.	.	28bb-\	.	.	.	.
.	.	.	.	.	8b-\	się	.
.	.	.	28ff\	.	.	.	.
.	.	.	28dd\	.	.	.	.
16d/Jk	.	.	.	.	.	.	.
.	.	.	28b-\JJ)	.	.	.	.
2B-/)	.	.	28r	.	4.ee\	cud,	.
.	.	.	(28g\LL	.	.	.	.
.	.	.	28b-\	.	.	.	.
.	.	.	28gg\	.	.	.	.
.	.	.	28dd\	.	.	.	.
.	.	.	28b-\	.	.	.	.
.	.	.	28g\JJ)	.	.	.	.
.	.	.	28r	.	.	.	.
.	.	.	(28g\LL	.	.	.	.
.	.	.	28b-\	.	.	.	.
.	.	.	28gg\	.	.	.	.
.	.	.	.	.	8dd\	i	.
.	.	.	28dd\	.	.	.	.
.	.	.	28b-\	.	.	.	.
.	.	.	28g\JJ)	.	.	.	.
=40	=40	=40	=40	=40	=40	=40	=40
!	!	!	!	!	!	!	!LO:DY:a
(8.f/L	2.G\	.	28r	.	8a/	stał	<
!	!LO:LB:g=original	!	!	!	!	!	!
.	.	.	(28b-\LL	.	.	.	.
.	.	.	28dd\	.	.	.	.
.	.	.	28bb-\	.	.	.	.
.	.	.	.	.	8b-\	się	.
.	.	.	28ff\	.	.	.	.
.	.	.	28dd\	.	.	.	.
16d/Jk	.	.	.	.	.	.	.
.	.	.	28b-\JJ)	.	.	.	.
2B-/)	.	.	28r	.	[2ff\	cud	[
!LO:LB:g=original	!	!	!	!	!LO:LB:g=original	!	!
.	.	.	(28f\LL	.	.	.	.
.	.	.	28b-\	.	.	.	.
.	.	.	28ff\	.	.	.	.
.	.	.	28dd\	.	.	.	.
.	.	.	28b-\	.	.	.	.
.	.	.	28f\JJ)	.	.	.	.
.	.	.	28r	.	.	.	.
.	.	.	(28d/LL	.	.	.	.
.	.	.	28f/	.	.	.	.
.	.	.	28dd/	.	.	.	.
.	.	.	28b-/	.	.	.	.
.	.	.	28f/	.	.	.	.
.	.	.	28d/JJ)	.	.	.	.
!	!	!	!LO:LB:g=original	!	!	!	!
=41	=41	=41	=41	=41	=41	=41	=41
(8.f/L	2.G\	.	28r	.	8ff\]	.	.
.	.	.	(28dd\LL	.	.	.	.
.	.	.	28ff\	.	.	.	.
.	.	.	28ddd\	.	.	.	.
!	!	!	!	!	!	!	!LO:HP:t=cresc.
.	.	.	.	.	8g/	i	<
.	.	.	28bbn\	.	.	.	.
.	.	.	28ff\	.	.	.	.
16d/Jk	.	.	.	.	.	.	.
.	.	.	28dd\JJ)	.	.	.	.
2Bn/)	.	.	28r	.	8bn\	roz-	.
.	.	.	(28bn\LL	]	.	.	.
.	.	.	28dd\	.	.	.	.
.	.	.	28bb\	.	.	.	.
.	.	.	.	.	8dd\	-ra-	.
.	.	.	28ff\	.	.	.	.
.	.	.	28dd\	]	.	.	.
.	.	.	28b\JJ)	.	.	.	.
.	.	.	28r	.	8ff\	-du-	[
.	.	.	(28f\LL	.	.	.	.
.	.	.	28b\	.	.	.	.
.	.	.	28ff\	.	.	.	.
.	.	.	.	.	8gg\	-je	.
.	.	.	28dd\	.	.	.	.
.	.	.	28b\	.	.	.	.
.	.	.	28f\JJ)	.	.	.	.
*clefG2	*	*	*	*	*	*	*
=42	=42	=42	=42	=42	=42	=42	=42
!	!	!	!	!	!	!	!LO:DY:a
(8.f/L	2.G\	.	28r	.	[2aa\	świat,	>
!	!LO:LB:g=original	!	!	!	!	!	!
.	.	.	(28ff\LL	.	.	.	.
.	.	.	28bbn\	.	.	.	.
.	.	.	28fff\	.	.	.	.
.	.	.	28ddd\	.	.	.	.
.	.	.	28bb\	.	.	.	.
16d/Jk	.	.	.	.	.	.	.
.	.	.	28ff\JJ)	.	.	.	.
4Bn/	.	.	28r	.	.	.	.
.	.	.	(28dd\LL	.	.	.	.
.	.	.	28ff\	.	.	.	.
.	.	.	28ddd\	.	.	.	.
.	.	.	28bb\	.	.	.	.
.	.	.	28ff\	.	.	.	.
.	.	.	28dd\JJ)	.	.	.	.
4f/)	.	.	28r	.	8aa\]	.	]
!LO:LB:g=original	!	!	!	!	!	!	!
.	.	.	(28bn\LL	.	.	.	.
.	.	.	28dd\	.	.	.	.
.	.	.	28bb\	.	.	.	.
!	!	!	!	!	!LO:TX:a:i:t=dolce	!	!
.	.	.	.	.	8ff\	i	.
!	!	!	!	!	!LO:LB:g=original	!	!
.	.	.	28ff\	.	.	.	.
.	.	.	28dd\	.	.	.	.
.	.	.	28b\JJ)	.	.	.	.
!	!	!	!LO:LB:g=original	!	!	!	!
=43	=43	=43	=43	=43	=43	=43	=43
!	!	!	!	!	!LO:TX:a:i:t=dolce	!	!
(8.a/L	4c\	.	28r	.	[2ee\	stał	.
!	!	!	!LO:TX:b:i:t=dolce	!	!	!	!
.	.	.	(28cc\LL	.	.	.	.
.	.	.	28ff\	.	.	.	.
.	.	.	28ccc\	.	.	.	.
.	.	.	28aa\	.	.	.	.
.	.	.	28ff\	.	.	.	.
16f/Jk)	.	.	.	.	.	.	.
.	.	.	28cc\JJ)	.	.	.	.
2c/	2c\	.	28r	.	.	.	.
.	.	.	(28cc\LL	.	.	.	.
.	.	.	28ff\	.	.	.	.
.	.	.	28ccc\	.	.	.	.
.	.	.	28aa\	.	.	.	.
.	.	.	28ff\	.	.	.	.
.	.	.	28cc\JJ)	.	.	.	.
.	.	.	28r	.	8ee\]	.	.
.	.	.	(28a\LL	.	.	.	.
.	.	.	28cc\	.	.	.	.
.	.	.	28aa\	.	.	.	.
.	.	.	.	.	8dd\	się	.
.	.	.	28ff\	.	.	.	.
.	.	.	28cc\	.	.	.	.
.	.	.	28a\JJ)	.	.	.	.
*clefF4	*	*	*	*	*	*	*
=44	=44	=44	=44	=44	=44	=44	=44
2.ryy	(8.A\L	.	28r	.	[2.cc\	cud	.
!LO:LB:g=original	!	!	!	!	!LO:LB:g=original	!	!
.	.	.	(28f\LL	.	.	.	.
.	.	.	28a\	.	.	.	.
.	.	.	28ff\	.	.	.	.
.	.	.	28cc\	.	.	.	.
.	.	.	28a\	.	.	.	.
.	16F\Jk	.	.	.	.	.	.
.	.	.	28f\JJ)	.	.	.	.
.	[2C/)	.	28r	.	.	.	.
!	!LO:LB:g=original	!	!	!	!	!	!
.	.	.	(28e/LL	.	.	.	.
.	.	.	28a/	.	.	.	.
.	.	.	28ee/	.	.	.	.
.	.	.	28cc/	.	.	.	.
.	.	.	28a/	.	.	.	.
.	.	.	28e/JJ)	.	.	.	.
.	.	.	28r	.	.	.	.
.	.	.	(28d/LL	.	.	.	.
.	.	.	28f/	.	.	.	.
.	.	.	28dd/	.	.	.	.
.	.	.	28a/	.	.	.	.
.	.	.	28f/	.	.	.	.
.	.	.	28d/JJ)	.	.	.	.
!	!	!	!LO:LB:g=original	!	!	!	!
=45	=45	=45	=45	=45	=45	=45	=45
(8.A/L	4C\]	.	28r	.	8cc\]	.	.
.	.	.	(28c/LL	.	.	.	.
.	.	.	28f/	.	.	.	.
.	.	.	28cc/	.	.	.	.
.	.	.	.	.	8a/	i	.
.	.	.	28a/	.	.	.	.
.	.	.	28f/	.	.	.	.
16F/Jk	.	.	.	.	.	.	.
.	.	.	28c/JJ)	.	.	.	.
!	!	!	!	!	!	!	!LO:DY:a
4C/	4rEEyy	.	28r	.	(8f/L	roz-	<
.	.	.	(28c/LL	]	.	.	.
.	.	.	28f/	.	.	.	.
.	.	.	28cc/	.	.	.	.
.	.	.	.	.	8a/	.	.
.	.	.	28a/	.	.	.	.
.	.	.	28f/	.	.	.	.
.	.	.	28c/JJ)	.	.	.	.
4A\)	4rEEyy	.	28r	.	8cc/J)	.	.
.	.	.	(28c/LL	.	.	.	.
.	.	.	28f/	.	.	.	.
.	.	.	28cc/	.	.	.	.
.	.	.	.	.	8ee\	-ra-	[
.	.	.	28a/	.	.	.	.
.	.	.	28f/	]	.	.	.
.	.	.	28c/JJ)	.	.	.	.
*v	*v	*	*	*	*	*	*
=46	=46	=46	=46	=46	=46	=46
(8.B-\L	.	28r	.	[2dd\	-du-	.
.	.	(28d/LL	.	.	.	.
.	.	28g/	.	.	.	.
.	.	28dd/	.	.	.	.
.	.	28b-/	.	.	.	.
.	.	28g/	.	.	.	.
16G\Jk	.	.	.	.	.	.
.	.	28d/JJ)	.	.	.	.
4C/	.	28r	.	.	.	.
.	.	(28d/LL	.	.	.	.
.	.	28g/	.	.	.	.
.	.	28dd/	.	.	.	.
.	.	28b-/	.	.	.	.
.	.	28g/	.	.	.	.
.	.	28d/JJ)	]	.	.	.
!	!	!	!	!	!	!LO:DY:a
4B-\)	.	28r	.	8.dd\]	.	>
!LO:PB:g=original	!	!	!	!	!	!
.	.	(28e/LL	.	.	.	.
.	.	28g/	.	.	.	.
.	.	28ee/	.	.	.	.
.	.	28b-/	.	.	.	.
.	.	28g/	]	.	.	.
.	.	.	.	16cc\	-je	]
!	!	!	!	!LO:PB:g=original	!	!
.	.	28e/JJ)	.	.	.	.
!	!	!LO:PB:g=original	!	!	!	!
=47	=47	=47	=47	=47	=47	=47
(8.A\L	.	28r	.	[2.cc\	świat.	.
.	.	(28a\LL	.	.	.	.
.	.	28cc\	.	.	.	.
.	.	28aa\	.	.	.	.
.	.	28ff\	.	.	.	.
.	.	28cc\	.	.	.	.
16C\Jk	.	.	.	.	.	.
.	.	28a\JJ)	.	.	.	.
2FF/)	.	28r	.	.	.	.
.	.	(28f\LL	.	.	.	.
.	.	28a\	.	.	.	.
.	.	28ff\	.	.	.	.
.	.	28cc\	.	.	.	.
.	.	28a\	.	.	.	.
.	.	28f\JJ)	.	.	.	.
.	.	28r	.	.	.	.
.	.	(28c/LL	.	.	.	.
.	.	28f/	.	.	.	.
.	.	28cc/	.	.	.	.
.	.	28a/	.	.	.	.
.	.	28f/	.	.	.	.
.	.	28c/JJ)	.	.	.	.
=48	=48	=48	=48	=48	=48	=48
*^	*	*	*	*	*	*
(4C/	2FF\	.	28r	.	8cc\]	.	.
.	.	.	(28A/LL	.	.	.	.
.	.	.	28c/	.	.	.	.
.	.	.	28a/	.	.	.	.
.	.	.	.	.	8r	.	.
.	.	.	28f/	.	.	.	.
.	.	.	28c/	.	.	.	.
.	.	.	28A/JJ)	.	.	.	.
4A/)	.	.	28r	.	4r	.	.
.	.	.	(28c/LL	.	.	.	.
.	.	.	28f/	.	.	.	.
.	.	.	28cc/	.	.	.	.
.	.	.	28a/	.	.	.	.
.	.	.	28f/	.	.	.	.
.	.	.	28c/JJ)	.	.	.	.
!	!	!LO:DY:a	!	!	!	!	!
4DD|/	4rEEyy	sfz	28r	.	4r	.	.
!LO:LB:g=original	!LO:LB:g=original	!	!	!	!LO:LB:g=original	!	!
.	.	.	(28d/LL	.	.	.	.
.	.	.	28f/	.	.	.	.
.	.	.	28dd/	.	.	.	.
.	.	.	28a/	.	.	.	.
.	.	.	28f/	.	.	.	.
.	.	.	28d/JJ)	.	.	.	.
!	!	!	!LO:LB:g=original	!	!	!	!
=49	=49	=49	=49	=49	=49	=49	=49
(4E/	2AA\	.	28r	.	2.r	.	.
.	.	.	(28c/LL	.	.	.	.
.	.	.	28e/	.	.	.	.
.	.	.	28cc/	.	.	.	.
.	.	.	28a/	.	.	.	.
.	.	.	28e/	.	.	.	.
.	.	.	28c/JJ)	.	.	.	.
4c/)	.	.	28r	.	.	.	.
.	.	.	(28e/LL	.	.	.	.
.	.	.	28a/	.	.	.	.
.	.	.	28ee/	.	.	.	.
.	.	.	28cc/	.	.	.	.
.	.	.	28a/	.	.	.	.
.	.	.	28e/JJ)	.	.	.	.
!	!	!LO:DY:a	!	!	!	!	!
4DD|/	4rEEyy	sfz	28r	.	.	.	.
.	.	.	(28f\LL	.	.	.	.
.	.	.	28a\	.	.	.	.
.	.	.	28ff\	.	.	.	.
.	.	.	28dd\	.	.	.	.
.	.	.	28a\	.	.	.	.
.	.	.	28f\JJ)	.	.	.	.
*v	*v	*	*	*	*	*	*
=50	=50	=50	=50	=50	=50	=50
4C:\ 4G: 4e:	.	28r	.	2.r	.	.
!	!	!	!	!	!LO:LB:g=original	!
.	.	(28g\LL	.	.	.	.
.	.	28cc\	.	.	.	.
.	.	28gg\	.	.	.	.
.	.	28ee\	.	.	.	.
.	.	28cc\	.	.	.	.
.	.	28g\JJ)	.	.	.	.
4F:\ 4c: 4f:	.	28r	.	.	.	.
.	.	(28a\LL	]	.	.	.
.	.	28cc\	.	.	.	.
!	!	!LO:TX:b:i:t=sempre	!	!	!	!
.	.	28aa\	]	.	.	.
.	.	28ff\	.	.	.	.
.	.	28cc\	.	.	.	.
.	.	28a\JJ)	.	.	.	.
*clefG2	*	*	*	*	*	*
4A:/ 4e: 4a:	.	28r	.	.	.	.
!LO:LB:g=original	!	!	!	!	!	!
.	.	(28cc\LL	.	.	.	.
.	.	28ee\	.	.	.	.
.	.	28ccc\	.	.	.	.
.	.	28aa\	.	.	.	.
.	.	28ee\	.	.	.	.
.	.	28cc\JJ)	.	.	.	.
!	!	!LO:LB:g=original	!	!	!	!
=51	=51	=51	=51	=51	=51	=51
4G:/ 4d: 4b-:	.	28r	.	2.r	.	.
!	!	!LO:TX:b:i:t=ed armonioso	!	!	!	!
.	.	(28dd\LL	.	.	.	.
.	.	28gg\	.	.	.	.
.	.	28ddd\	.	.	.	.
.	.	28bb-\	.	.	.	.
.	.	28gg\	.	.	.	.
.	.	28dd\JJ)	.	.	.	.
*	*	*8va	*	*	*	*
4d:/ 4a: 4dd:	.	28r	.	.	.	.
.	.	(28ff\LL	.	.	.	.
.	.	28aa\	.	.	.	.
.	.	28fff\	.	.	.	.
.	.	28ddd\	.	.	.	.
.	.	28aa\	.	.	.	.
.	.	28ff\JJ)	.	.	.	.
4c:/ 4g: 4ee:	.	28r	.	.	.	.
.	.	(28gg\LL	.	.	.	.
.	.	28ccc\	.	.	.	.
.	.	28ggg\	.	.	.	.
.	.	28eee\	.	.	.	.
.	.	28ccc\	.	.	.	.
.	.	28gg\JJ)	.	.	.	.
=52	=52	=52	=52	=52	=52	=52
4f:\ 4cc: 4ff:	.	28r	.	2.r	.	.
!	!	!	!	!	!LO:LB:g=original	!
.	.	(28aa\LL	.	.	.	.
.	.	28ccc\	.	.	.	.
.	.	28aaa\	.	.	.	.
.	.	28fff\	.	.	.	.
.	.	28ccc\	.	.	.	.
.	.	28aa\JJ)	.	.	.	.
*clefF4	*	*	*	*	*	*
!	!LO:DY:a	!	!	!	!	!
4FF|/	sfz	28r	.	.	.	.
.	.	(28ff\LL	.	.	.	.
.	.	28aa\	.	.	.	.
.	.	28fff\	.	.	.	.
.	.	28ccc\	.	.	.	.
.	.	28aa\	.	.	.	.
.	.	28ff\JJ)	.	.	.	.
*clefG2	*	*	*	*	*	*
*	*	*X8va	*	*	*	*
4f/ 4a	.	28r	.	.	.	.
!LO:LB:g=original	!	!	!	!	!	!
.	.	(28cc\LL	.	.	.	.
.	.	28ff\	.	.	.	.
.	.	28ccc\	.	.	.	.
.	.	28aa\	.	.	.	.
.	.	28ff\	.	.	.	.
.	.	28cc\JJ)	.	.	.	.
!	!	!LO:LB:g=original	!	!	!	!
*clefF4	*	*	*	*	*	*
=53	=53	=53	=53	=53	=53	=53
4F:\ 4c: 4f:	.	28r	.	2.r	.	.
.	.	(28a\LL	.	.	.	.
.	.	28cc\	.	.	.	.
.	.	28aa\	.	.	.	.
.	.	28ff\	.	.	.	.
.	.	28cc\	.	.	.	.
.	.	28a\JJ)	.	.	.	.
!	!LO:DY:a	!	!	!	!	!
4FF|/	sfz	28r	.	.	.	.
.	.	(28f\LL	.	.	.	.
.	.	28a\	.	.	.	.
.	.	28ff\	.	.	.	.
.	.	28cc\	.	.	.	.
.	.	28a\	.	.	.	.
.	.	28f\JJ)	.	.	.	.
4F\ 4A	.	28r	.	.	.	.
.	.	(28c/LL	.	.	.	.
.	.	28f/	.	.	.	.
.	.	28cc/	.	.	.	.
.	.	28a/	.	.	.	.
.	.	28f/	.	.	.	.
.	.	28c/JJ)	.	.	.	.
=54	=54	=54	=54	=54	=54	=54
2.FFF;/	.	2.r;	.	2.r;	.	.
==	==	==	==	==	==	==
*-	*-	*-	*-	*-	*-	*-
!!!RDF**kern: | = vertical stroke
!!!system-decoration: s1[(s2,s3)]
!!!ENC: Mateusz Solarz
!!!END: 2022-03-28
!!!ENC: Julita Ruszuk
!!!END: 2022-03-30
